app/assets/images/books.svg

<svg width="25" height="22" viewBox="0 0 25 22" fill="none" xmlns="http://www.w3.org/2000/svg">
<path d="M23.8452 20.8341C24.3843 21.0644 24.9999 20.6614 24.9999 20.0496V2.46915C25.0021 2.318 24.9623 2.16947 24.8854 2.04179C24.8085 1.91412 24.6979 1.81284 24.5671 1.75041C22.8077 0.923113 16.0984 -1.85153 12.5 1.96258C8.90006 -1.84824 2.19231 0.923113 0.432946 1.75041C0.301664 1.81307 0.190703 1.91485 0.113782 2.04317C0.0368609 2.1715 -0.00264858 2.32074 0.000137851 2.47244V20.0512C0.000137851 20.6631 0.615757 21.0677 1.15482 20.8358C4.27822 19.4953 9.57037 18.2799 12.5 21.3835C15.4297 18.2799 20.7218 19.4953 23.8452 20.8341Z" fill="white"/>
</svg>

<svg width="25" height="22" fill="none" xmlns="http://www.w3.org/2000/svg"><path d="M23.845 20.834c.54.23 1.155-.173 1.155-.784V2.47a.807.807 0 00-.115-.428.75.75 0 00-.318-.292c-1.76-.827-8.469-3.602-12.067.213C8.9-1.848 2.192.923.433 1.75a.75.75 0 00-.32.293.807.807 0 00-.113.43V20.05c0 .612.616 1.017 1.155.785 3.123-1.34 8.415-2.556 11.345.548 2.93-3.104 8.222-1.889 11.345-.55z" fill="#fff"/></svg>
